X: 160808
T: Paddy Scully's
S: "Music of Ireland - The Big Session" (DJ Taylor)
Z: B.Black
L: 1/8
M: 12/8
R: slide
K: G
gfe|d2 B BAB g2e f2 e|d2 B BAB e3 efe|\
d2 B BAB g2 e f2 e|d2 B ABA G3 :|
G2 g|fga e2 g fga e2 g|d2 B BAB e3 efg|\
fga e2 g fga e2 g|d2 B ABA G3 :|
